projects/ccf-eui/src/assets/icons/organ-icons/organ-icon-brain.svg

<svg width="64" height="64" viewBox="0 0 64 64" fill="currentColor" xmlns="http://www.w3.org/2000/svg">
<g clip-path="url(#clip0_1795_216)">
<path d="M34.7733 7.40267C18.1759 4.26667 4.2666 12.3947 4.2666 23.6587C4.2666 33.984 9.53594 36.4587 14.9333 36.4587C14.9333 29.5253 26.8586 28.544 32.4053 30.6347C27.2426 29.9733 16.9173 30.1653 16.9173 37.6107C16.9173 38.08 16.9173 42.88 23.5519 43.584C26.2463 43.902 28.9737 43.8013 31.6373 43.2853C31.5649 43.9994 31.7363 44.717 32.1237 45.3213C32.511 45.9256 33.0915 46.381 33.7706 46.6133C34.3272 46.8009 34.8979 46.9435 35.4773 47.04C37.2727 49.7425 39.4256 52.1895 41.8773 54.3147C42.453 54.2798 43.0007 54.0547 43.4346 53.6747C43.793 53.3822 44.0227 52.961 44.0746 52.5013C42.7674 51.1176 41.9118 49.3692 41.6213 47.488C42.6239 47.488 43.2853 47.488 43.2853 47.488C43.2853 47.488 52.5439 46.9333 51.8186 42.176C51.8186 42.048 51.8186 41.92 51.7119 41.792C52.9577 42.0466 54.2421 42.0466 55.4879 41.792C58.3466 40.9387 59.5413 37.7813 59.7546 33.6427C60.0746 26.496 51.3493 10.5387 34.7733 7.40267Z"/>
</g>
<defs>
<clipPath id="clip0_1795_216">
<rect width="64" height="64"/>
</clipPath>
</defs>
</svg>

<svg xmlns="http://www.w3.org/2000/svg" width="64" height="64" fill="currentColor" viewBox="0 0 64 64"><g clip-path="url(#a)"><path d="M34.773 7.403C18.176 4.267 4.267 12.395 4.267 23.659c0 10.325 5.269 12.8 10.666 12.8 0-6.934 11.926-7.915 17.472-5.824-5.162-.662-15.488-.47-15.488 6.976 0 .469 0 5.269 6.635 5.973 2.694.318 5.422.217 8.085-.299a3.18 3.18 0 0 0 2.134 3.328q.836.282 1.706.427a36 36 0 0 0 6.4 7.275 2.6 2.6 0 0 0 1.558-.64c.358-.293.588-.714.64-1.174a9.4 9.4 0 0 1-2.454-5.013h1.664s9.259-.555 8.534-5.312c0-.128 0-.256-.107-.384a9.4 9.4 0 0 0 3.776 0c2.859-.853 4.053-4.01 4.267-8.15.32-7.146-8.406-23.103-24.982-26.24"/></g><defs><clipPath id="a"><path d="M0 0h64v64H0z"/></clipPath></defs></svg>
